48x48/emotes/face-devilish.svg

<svg xmlns="http://www.w3.org/2000/svg" width="48" height="48" version="1">
 <path style="opacity:0.2" d="M 4.2890625,2 C 4.1036785,2.8041194 4.007393,3.6175738 4,4.4335938 4.00826,7.0966562 5,14 6,14 l 6,-4 C 9.057932,7.8219865 4.9971595,5.0538146 4.2890625,2 Z M 37.710938,2 C 37.00284,5.0538146 32.942068,7.8219865 30,10 l 6,4 C 37,14 37.99174,7.0966563 38,4.4335938 37.992607,3.6175738 37.896322,2.8041194 37.710938,2 Z m -14.802735,24.404297 -3.816406,1.191406 c 0,0 1.297903,4.187381 3.814453,8.425781 1.258275,2.1192 2.823662,4.282247 4.800781,5.992188 C 29.68415,43.723613 32.157407,45 35,45 c 5.092593,0 8.079713,-2.62249 9.207031,-5.199219 1.127319,-2.576728 0.777344,-5.048828 0.777344,-5.048828 l -3.96875,0.496094 c 0,0 0.150025,1.5279 -0.472656,2.951172 C 39.920287,39.62249 38.907407,41 35,41 33.342593,41 31.81585,40.276387 30.324219,38.986328 28.832588,37.696269 27.460475,35.859316 26.34375,33.978516 24.1103,30.216916 22.908203,26.404297 22.908203,26.404297 Z"/>
 <path style="fill:#892b26" d="M 37.710345,1 C 37.895729,1.8041194 37.992607,2.6183025 38,3.4343224 37.99174,6.0973849 37,13 36,13 L 30,9 c 2.942068,-2.1780135 7.002248,-4.9461854 7.710345,-8 z"/>
 <path style="fill:#892b26" d="M 4.289655,1 C 4.104271,1.8041194 4.007393,2.6183025 4,3.4343224 4.00826,6.0973849 5,13 6,13 L 12,9 C 9.057932,6.8219865 4.997752,4.0538146 4.289655,1 Z"/>
 <path style="fill:none;stroke:#892b26;stroke-width:4" d="m 21,26 c 0,0 5,16 14,16 9,0 8,-8 8,-8"/>
 <path style="fill:#f4f4f7;opacity:0.1" d="M 4.2890625 1 C 4.1036785 1.8041194 4.007393 2.6175738 4 3.4335938 C 4.0005403 3.6077863 4.0167075 3.8414697 4.0253906 4.0488281 C 4.0552282 3.3622522 4.1328987 2.6773741 4.2890625 2 C 4.9436051 4.8228502 8.4386826 7.3784617 11.291016 9.4726562 L 12 9 C 9.057932 6.8219865 4.9971595 4.0538146 4.2890625 1 z M 37.710938 1 C 37.00284 4.0538146 32.942068 6.8219865 30 9 L 30.708984 9.4726562 C 33.561317 7.3784617 37.056394 4.8228502 37.710938 2 C 37.867101 2.6773741 37.944772 3.3622522 37.974609 4.0488281 C 37.983292 3.8414697 37.99946 3.6077863 38 3.4335938 C 37.992607 2.6175738 37.896321 1.8041194 37.710938 1 z M 22.908203 25.404297 L 19.091797 26.595703 C 19.091797 26.595703 19.209301 26.954937 19.402344 27.498047 L 22.908203 26.404297 C 22.908203 26.404297 24.1103 30.216916 26.34375 33.978516 C 27.460475 35.859316 28.832588 37.696269 30.324219 38.986328 C 31.81585 40.276387 33.342593 41 35 41 C 38.907407 41 39.920287 39.62249 40.542969 38.199219 C 41.16565 36.775947 41.015625 35.248047 41.015625 35.248047 L 44.984375 34.751953 C 44.984375 34.751953 45.002843 34.911332 45.017578 35.140625 C 45.048629 34.317246 44.984375 33.751953 44.984375 33.751953 L 41.015625 34.248047 C 41.015625 34.248047 41.16565 35.775947 40.542969 37.199219 C 39.920287 38.62249 38.907407 40 35 40 C 33.342593 40 31.81585 39.276387 30.324219 37.986328 C 28.832588 36.696269 27.460475 34.859316 26.34375 32.978516 C 24.1103 29.216916 22.908203 25.404297 22.908203 25.404297 z"/>
 <path style="opacity:0.2" d="M 21,5 C 9.92,5 1,13.92 1,25 1,36.08 9.92,45 21,45 32.08,45 41,36.08 41,25 41,13.92 32.08,5 21,5 Z"/>
 <path style="fill:#d4453a" d="M 21,4 C 9.92,4 1,12.92 1,24 1,35.08 9.92,44 21,44 32.08,44 41,35.08 41,24 41,12.92 32.08,4 21,4 Z"/>
 <path style="opacity:0.1" d="m 12.785156,16.009766 c -0.250029,0.03982 -0.522218,0.198349 -0.83789,0.511718 -1.26269,1.253478 -1.26269,3.285585 0,4.539063 1.262691,1.253477 3.309574,1.253477 4.572265,0 1.262691,-1.253478 -0.221685,-2.039492 -1.484375,-3.292969 -0.947018,-0.940108 -1.499911,-1.877276 -2.25,-1.757812 z m 16.429688,0 c -0.750089,-0.119464 -1.302982,0.817704 -2.25,1.757812 -1.26269,1.253477 -2.747066,2.039491 -1.484375,3.292969 1.262691,1.253477 3.309574,1.253477 4.572265,0 1.26269,-1.253478 1.26269,-3.285585 0,-4.539063 -0.315672,-0.313369 -0.587861,-0.471897 -0.83789,-0.511718 z m 0.822265,13.978515 a 1.0001,1.0001 0 0 0 -0.83789,0.41211 C 29.199219,30.400391 26.555556,34 21,34 15.444444,34 12.800781,30.400391 12.800781,30.400391 a 1.0003905,1.0003905 0 1 0 -1.601562,1.199218 c 0,0 3.356337,4.400391 9.800781,4.400391 6.444444,0 9.800781,-4.400391 9.800781,-4.400391 a 1.0001,1.0001 0 0 0 -0.763672,-1.611328 z"/>
 <path style="fill:#17191e" d="m 16.519625,20.059892 c 1.262691,-1.253478 -0.222038,-2.039222 -1.484728,-3.292699 -1.262691,-1.253478 -1.825189,-2.500024 -3.08788,-1.246546 -1.26269,1.253478 -1.26269,3.285767 0,4.539245 1.262691,1.253477 3.309917,1.253477 4.572608,0 z"/>
 <path style="fill:none;stroke:#17191e;stroke-width:2;stroke-linecap:round;stroke-linejoin:round" d="m 12,30 c 0,0 3,4 9,4 6,0 9,-4 9,-4 v 0 0"/>
 <path style="fill:#17191e" d="m 25.480374,20.059892 c -1.262691,-1.253478 0.222038,-2.039222 1.484728,-3.292699 1.262691,-1.253478 1.825189,-2.500024 3.08788,-1.246546 1.26269,1.253478 1.26269,3.285767 0,4.539245 -1.262691,1.253477 -3.309917,1.253477 -4.572608,0 z"/>
 <path style="opacity:0.2" d="m 42.952171,30.001236 a 0.89602037,0.8750755 0 0 0 -0.727943,0.436354 l -1.551547,2.624964 -1.552714,2.624964 A 0.89602037,0.8750755 0 0 0 39.896908,37 H 43 46.103094 a 0.89602037,0.8750755 0 0 0 0.77694,-1.312482 L 45.327322,33.062554 43.775774,30.43759 a 0.89602037,0.8750755 0 0 0 -0.823603,-0.436354 z"/>
 <path style="fill:#d4453a" d="m 42.952171,29.001236 a 0.89602037,0.8750755 0 0 0 -0.727943,0.436354 l -1.551547,2.624964 -1.552714,2.624964 A 0.89602037,0.8750755 0 0 0 39.896908,36 H 43 46.103094 a 0.89602037,0.8750755 0 0 0 0.77694,-1.312482 L 45.327322,32.062554 43.775774,29.43759 a 0.89602037,0.8750755 0 0 0 -0.823603,-0.436354 z"/>
 <path style="fill:#f4f4f7;opacity:0.1" d="M 21 4 C 9.92 4 1 12.92 1 24 C 1 24.167874 1.007647 24.333141 1.0117188 24.5 C 1.2763904 13.653863 10.087874 5 21 5 C 31.912126 5 40.72361 13.653863 40.988281 24.5 C 40.992353 24.333141 41 24.167874 41 24 C 41 12.92 32.08 4 21 4 z"/>
 <path style="opacity:0.1;fill:#f4f4f7" d="M 42.953125 29.001953 A 0.89602037 0.8750755 0 0 0 42.224609 29.4375 L 40.671875 32.0625 L 39.119141 34.6875 A 0.89602037 0.8750755 0 0 0 39.158203 35.621094 L 40.671875 33.0625 L 42.224609 30.4375 A 0.89602037 0.8750755 0 0 1 42.953125 30.001953 A 0.89602037 0.8750755 0 0 1 43.775391 30.4375 L 45.328125 33.0625 L 46.841797 35.621094 A 0.89602037 0.8750755 0 0 0 46.880859 34.6875 L 45.328125 32.0625 L 43.775391 29.4375 A 0.89602037 0.8750755 0 0 0 42.953125 29.001953 z"/>
</svg>

<svg xmlns="http://www.w3.org/2000/svg" width="48" height="48" version="1"><path style="opacity:.2" d="M4.29 2A11.27 11.27 0 0 0 4 4.434C4.008 7.097 5 14 6 14l6-4C9.058 7.822 4.997 5.054 4.29 2zm33.42 0c-.707 3.054-4.768 5.822-7.71 8l6 4c1 0 1.992-6.903 2-9.566A11.27 11.27 0 0 0 37.71 2zM22.909 26.404l-3.816 1.192s1.298 4.187 3.814 8.425c1.259 2.12 2.824 4.283 4.801 5.993C29.684 43.724 32.157 45 35 45c5.093 0 8.08-2.622 9.207-5.2 1.127-2.576.777-5.048.777-5.048l-3.968.496s.15 1.528-.473 2.951S38.907 41 35 41c-1.657 0-3.184-.724-4.676-2.014-1.491-1.29-2.864-3.127-3.98-5.007-2.234-3.762-3.436-7.575-3.436-7.575z"/><path style="fill:#892b26" d="M37.71 1c.186.804.283 1.618.29 2.434C37.992 6.097 37 13 36 13l-6-4c2.942-2.178 7.002-4.946 7.71-8zM4.29 1A11.278 11.278 0 0 0 4 3.434C4.008 6.097 5 13 6 13l6-4C9.058 6.822 4.998 4.054 4.29 1z"/><path style="fill:none;stroke:#892b26;stroke-width:4" d="M21 26s5 16 14 16 8-8 8-8"/><path style="fill:#f4f4f7;opacity:.1" d="M4.29 1A11.27 11.27 0 0 0 4 3.434c0 .174.017.407.025.615.03-.687.108-1.372.264-2.049.655 2.823 4.15 5.378 7.002 7.473L12 9C9.058 6.822 4.997 4.054 4.29 1zm33.42 0c-.707 3.054-4.768 5.822-7.71 8l.709.473c2.852-2.095 6.347-4.65 7.002-7.473.156.677.234 1.362.264 2.049.008-.208.024-.441.025-.615A11.27 11.27 0 0 0 37.71 1zM22.909 25.404l-3.816 1.192s.117.359.31.902l3.506-1.094s1.202 3.813 3.436 7.575c1.116 1.88 2.489 3.717 3.98 5.007C31.816 40.276 33.343 41 35 41c3.907 0 4.92-1.378 5.543-2.8.623-1.424.473-2.952.473-2.952l3.968-.496s.019.16.034.389c.03-.824-.034-1.389-.034-1.389l-3.968.496s.15 1.528-.473 2.951S38.907 40 35 40c-1.657 0-3.184-.724-4.676-2.014-1.491-1.29-2.864-3.127-3.98-5.007-2.234-3.762-3.436-7.575-3.436-7.575z"/><path style="opacity:.2" d="M21 5C9.92 5 1 13.92 1 25s8.92 20 20 20 20-8.92 20-20S32.08 5 21 5z"/><path style="fill:#d4453a" d="M21 4C9.92 4 1 12.92 1 24s8.92 20 20 20 20-8.92 20-20S32.08 4 21 4z"/><path style="opacity:.1" d="M12.785 16.01c-.25.04-.522.198-.838.511a3.193 3.193 0 0 0 0 4.54 3.25 3.25 0 0 0 4.573 0c1.262-1.254-.222-2.04-1.485-3.293-.947-.94-1.5-1.878-2.25-1.758zm16.43 0c-.75-.12-1.303.817-2.25 1.758-1.263 1.253-2.747 2.04-1.485 3.293a3.25 3.25 0 0 0 4.573 0 3.193 3.193 0 0 0 0-4.54c-.316-.313-.588-.471-.838-.511zm.822 13.978a1 1 0 0 0-.838.412S26.556 34 21 34s-8.2-3.6-8.2-3.6a1 1 0 1 0-1.6 1.2S14.555 36 21 36c6.444 0 9.8-4.4 9.8-4.4a1 1 0 0 0-.763-1.612z"/><path style="fill:#17191e" d="M16.52 20.06c1.262-1.254-.222-2.04-1.485-3.293-1.263-1.253-1.825-2.5-3.088-1.246a3.193 3.193 0 0 0 0 4.539 3.25 3.25 0 0 0 4.573 0z"/><path style="fill:none;stroke:#17191e;stroke-width:2;stroke-linecap:round;stroke-linejoin:round" d="M12 30s3 4 9 4 9-4 9-4v0"/><path style="fill:#17191e" d="M25.48 20.06c-1.262-1.254.222-2.04 1.485-3.293 1.263-1.253 1.825-2.5 3.088-1.246a3.193 3.193 0 0 1 0 4.539 3.25 3.25 0 0 1-4.573 0z"/><path style="opacity:.2" d="M42.952 30.001a.896.875 0 0 0-.728.437l-1.551 2.625-1.553 2.625A.896.875 0 0 0 39.897 37h6.206a.896.875 0 0 0 .777-1.312l-1.553-2.625-1.551-2.625a.896.875 0 0 0-.824-.437z"/><path style="fill:#d4453a" d="M42.952 29.001a.896.875 0 0 0-.728.437l-1.551 2.625-1.553 2.625A.896.875 0 0 0 39.897 36h6.206a.896.875 0 0 0 .777-1.312l-1.553-2.625-1.551-2.625a.896.875 0 0 0-.824-.437z"/><path style="fill:#f4f4f7;opacity:.1" d="M21 4C9.92 4 1 12.92 1 24c0 .168.008.333.012.5A19.952 19.952 0 0 1 21 5a19.952 19.952 0 0 1 19.988 19.5c.004-.167.012-.332.012-.5 0-11.08-8.92-20-20-20z"/><path style="opacity:.1;fill:#f4f4f7" d="M42.953 29.002a.896.875 0 0 0-.728.436l-1.553 2.625-1.553 2.624a.896.875 0 0 0 .04.934l1.513-2.559 1.553-2.624a.896.875 0 0 1 .728-.436.896.875 0 0 1 .822.436l1.553 2.625 1.514 2.558a.896.875 0 0 0 .039-.934l-1.553-2.624-1.553-2.626a.896.875 0 0 0-.822-.435z"/></svg>
